dist/img/i-search.svg

<svg width="23" height="24" viewBox="0 0 23 24" fill="none" xmlns="http://www.w3.org/2000/svg">
<path d="M22.6503 21.8602L16.9804 15.9194C18.4382 14.1735 19.237 11.9768 19.237 9.68999C19.237 4.34701 14.922 0 9.61849 0C4.31494 0 0 4.34701 0 9.68999C0 15.033 4.31494 19.38 9.61849 19.38C11.6095 19.38 13.5069 18.775 15.1291 17.6265L20.842 23.6124C21.0808 23.8622 21.402 24 21.7462 24C22.0719 24 22.381 23.8749 22.6156 23.6474C23.1141 23.1641 23.13 22.3628 22.6503 21.8602ZM9.61849 2.52782C13.5387 2.52782 16.7278 5.74069 16.7278 9.68999C16.7278 13.6393 13.5387 16.8522 9.61849 16.8522C5.69833 16.8522 2.50917 13.6393 2.50917 9.68999C2.50917 5.74069 5.69833 2.52782 9.61849 2.52782Z" fill="black"/>
</svg>

<svg width="23" height="24" fill="none" xmlns="http://www.w3.org/2000/svg"><path d="M22.65 21.86l-5.67-5.94a9.702 9.702 0 0 0 2.257-6.23c0-5.343-4.315-9.69-9.619-9.69C4.315 0 0 4.347 0 9.69c0 5.343 4.315 9.69 9.618 9.69a9.467 9.467 0 0 0 5.511-1.753l5.713 5.985c.239.25.56.388.904.388.326 0 .635-.125.87-.353a1.272 1.272 0 0 0 .034-1.787zM9.618 2.528c3.92 0 7.11 3.213 7.11 7.162 0 3.95-3.19 7.162-7.11 7.162-3.92 0-7.109-3.213-7.109-7.162 0-3.95 3.19-7.162 7.11-7.162z" fill="#000"/></svg>
